app/images/email-contacts.svg

<svg width="117" height="117" viewBox="0 0 117 117" fill="none" xmlns="http://www.w3.org/2000/svg">
<circle cx="54.8521" cy="54.2252" r="54.2256" fill="#266EF8" fill-opacity="0.42"/>
<circle cx="62.5074" cy="61.8802" r="53.5877" stroke="#626262" stroke-width="1.2759"/>
<path d="M71.8939 32.3214H39.642C29.9665 32.3214 23.5161 37.1592 23.5161 48.4473V71.0236C23.5161 82.3118 29.9665 87.1495 39.642 87.1495H71.8939C81.5694 87.1495 88.0198 82.3118 88.0198 71.0236V48.4473C88.0198 37.1592 81.5694 32.3214 71.8939 32.3214ZM73.4097 51.9628L63.3149 60.0257C61.1863 61.7351 58.4771 62.5736 55.768 62.5736C53.0588 62.5736 50.3174 61.7351 48.221 60.0257L38.1262 51.9628C37.0941 51.1242 36.9329 49.5761 37.7392 48.5441C38.5777 47.512 40.0936 47.3185 41.1256 48.1571L51.2205 56.22C53.6716 58.1874 57.8321 58.1874 60.2832 56.22L70.378 48.1571C71.4101 47.3185 72.9582 47.4798 73.7645 48.5441C74.603 49.5761 74.4418 51.1242 73.4097 51.9628Z" fill="#292D32"/>
</svg>

<svg width="117" height="117" fill="none" xmlns="http://www.w3.org/2000/svg"><circle cx="54.852" cy="54.225" r="54.226" fill="#266EF8" fill-opacity=".42"/><circle cx="62.507" cy="61.88" r="53.588" stroke="#626262" stroke-width="1.276"/><path d="M71.894 32.321H39.642c-9.676 0-16.126 4.838-16.126 16.126v22.577c0 11.288 6.45 16.126 16.126 16.126h32.252c9.675 0 16.126-4.838 16.126-16.126V48.447c0-11.288-6.45-16.126-16.126-16.126Zm1.516 19.642-10.095 8.063c-2.129 1.71-4.838 2.548-7.547 2.548-2.71 0-5.45-.839-7.547-2.548l-10.095-8.063c-1.032-.839-1.193-2.387-.387-3.419.839-1.032 2.355-1.225 3.387-.387L51.22 56.22c2.45 1.967 6.611 1.967 9.062 0l10.095-8.063c1.032-.838 2.58-.677 3.386.387a2.447 2.447 0 0 1-.354 3.419Z" fill="#292D32"/></svg>
